X:12
T:Ephemeral Emporer, The
M:2/4
L:1/8
B:WM Cahusac - Annual Collection of Twenty Four Favorite Country Dances for 1809, No. 12 (London)
N:"With proper Directions to each Dance as they are performed at
N:Court, Bath, and all Public Assemblies."
Z:Transcribed and edited by Flynn Titford-Mock, 2007
Z:abc's:AK/Fiddler's Companion
K:A
a>e c/A/e/c/|d/c/B/A/ G/B/B/e/|a>e c/A/e/c/|G/A/B/c/ AA:|
|:A,/C/E/A/ c/A/e/c/|B/G/E/c/ B/G/E/z/|A,/C/E/A/ c/A/e/c/|d/B/G/B/ AA:|
|:e/c/a/g/ f/e/d/c/|B/G/E/c/ B/G/E/z/|A,/B,/C/D/ E/A/c/A/|d/B/e/G/ AA:||
